X:1
T:sin nombre nº 1
M:C|
R:Reel
K:D
F|~GEBE ~GEBE|~GEBE AE.D2|FB~dB A2BA|FD~ED FGAF|~GEBE ~GEBE|~GEBE AEDE|FB~dB .A2BA|FD~ED FGAF|
~GEFE .e2ec|dcBA ~Bd.e2|EFGA Bd~ed|FD~ED FGAF|~GEFE e2ec|~ecBA Bc~eB|c~ecA B~eBA|FD~ED FGAF|]

